public/svg/swift.svg

<svg xmlns="http://www.w3.org/2000/svg" width="56" height="56" viewBox="0 0 56 56" fill="none">
<rect width="56" height="56" fill="#C4C4C4" fill-opacity="0.01"/>
<path d="M47.2783 18.3193C47.278 17.4904 47.1946 16.6637 47.0293 15.8516C46.8639 15.0201 46.5828 14.216 46.1941 13.4627C45.788 12.733 45.2832 12.0627 44.694 11.4708C44.0863 10.8763 43.3805 10.3911 42.6076 10.0369C41.8449 9.65229 41.0291 9.38355 40.1872 9.23952C39.352 9.07879 38.4349 9.07879 37.5997 9H16.9978C16.3551 9.01046 15.7139 9.06416 15.0785 9.16073C14.4479 9.23497 13.8306 9.39618 13.2442 9.63977C13.0772 9.71856 12.8282 9.8005 12.6612 9.87929C12.1064 10.1767 11.5791 10.5226 11.0854 10.913C10.9184 11.0737 10.7513 11.1525 10.5843 11.3101C9.97008 11.8798 9.46211 12.5543 9.08415 13.3019C8.67139 14.0447 8.38892 14.8527 8.24898 15.6908C8.12478 16.5087 8.04168 17.3323 8 18.1585V37.191C8.00026 38.0198 8.08367 38.8465 8.24898 39.6587C8.41436 40.4901 8.69549 41.2942 9.08415 42.0476C9.49032 42.7773 9.99512 43.4475 10.5843 44.0394C11.192 44.634 11.8978 45.1191 12.6707 45.4734C13.4334 45.858 14.2491 46.1267 15.0911 46.2707C15.9263 46.4314 16.8434 46.4314 17.6785 46.5102H37.6029C38.4709 46.5096 39.337 46.4294 40.1904 46.2707C41.0323 46.1267 41.8481 45.858 42.6108 45.4734C43.3671 45.0906 44.0688 44.6084 44.6971 44.0394C45.3114 43.4697 45.8193 42.7952 46.1973 42.0476C46.61 41.3048 46.8925 40.4968 47.0325 39.6587C47.1567 38.8408 47.2398 38.0172 47.2814 37.191V18.3193H47.2783Z" fill="#F05138"/>
<path d="M34.2529 37.9979C30.7515 39.9298 25.939 40.1284 21.095 38.146C17.3182 36.6136 14.089 33.9817 11.8262 30.5916C12.8778 31.3966 14.0267 32.0658 15.2456 32.5835C20.2472 34.8211 25.2456 34.6667 28.766 32.5835C23.7549 28.9087 19.5003 24.1309 16.3298 20.2292C15.7041 19.5698 15.1457 18.8498 14.6626 18.0798C18.4949 21.4237 24.5901 25.6436 26.7584 26.8381C23.6625 23.666 20.8175 20.2583 18.2491 16.6459C22.5186 20.7949 27.2167 24.4787 32.2642 27.6355C32.488 27.7552 32.6613 27.8561 32.8 27.9506C32.948 27.5894 33.0753 27.2201 33.1814 26.8444C34.3506 22.782 33.0143 18.1649 30.0959 14.342C36.853 18.2406 40.8712 25.5649 39.1883 31.6979C39.1442 31.8649 39.0969 32.013 39.0465 32.1863L39.1063 32.2557C42.4439 36.2361 41.5268 40.4498 41.1076 39.6619C39.2954 36.2645 35.9453 37.314 34.2529 37.9979Z" fill="#FEFEFE"/>
</svg>

<svg xmlns="http://www.w3.org/2000/svg" width="56" height="56" fill="none" xmlns:v="https://vecta.io/nano"><path fill="#c4c4c4" fill-opacity=".01" d="M0 0h56v56H0z"/><path d="M47.278 18.319c0-.829-.084-1.656-.249-2.468-.165-.832-.447-1.636-.835-2.389a9.09 9.09 0 0 0-1.5-1.992 7.38 7.38 0 0 0-2.086-1.434c-.763-.385-1.578-.653-2.42-.797-.835-.161-1.752-.161-2.587-.24H16.998c-.643.01-1.284.064-1.919.161a6.88 6.88 0 0 0-1.834.479c-.167.079-.416.161-.583.24a10.66 10.66 0 0 0-1.576 1.034c-.167.161-.334.239-.501.397-.614.57-1.122 1.244-1.5 1.992a7.44 7.44 0 0 0-.835 2.389A24.74 24.74 0 0 0 8 18.159v19.033a12.39 12.39 0 0 0 .249 2.468 9.07 9.07 0 0 0 .835 2.389 9.09 9.09 0 0 0 1.5 1.992 7.38 7.38 0 0 0 2.086 1.434 8.59 8.59 0 0 0 2.42.797c.835.161 1.752.161 2.587.239h19.924c.868-.001 1.734-.081 2.587-.239.842-.144 1.658-.413 2.42-.797.756-.383 1.458-.865 2.086-1.434.614-.57 1.122-1.244 1.5-1.992.413-.743.695-1.551.835-2.389.124-.818.207-1.642.249-2.468V18.319h-.003z" fill="#f05138"/><path d="M34.253 37.998c-3.501 1.932-8.314 2.13-13.158.148-3.777-1.532-7.006-4.164-9.269-7.554 1.052.805 2.201 1.474 3.419 1.992 5.002 2.238 10 2.083 13.52 0-5.011-3.675-9.266-8.453-12.436-12.354a13.7 13.7 0 0 1-1.667-2.149c3.832 3.344 9.928 7.564 12.096 8.758a85.65 85.65 0 0 1-8.509-10.192c4.27 4.149 8.968 7.833 14.015 10.99.224.12.397.221.536.315a10.3 10.3 0 0 0 .381-1.106c1.169-4.062-.167-8.679-3.085-12.502 6.757 3.899 10.775 11.223 9.092 17.356-.044.167-.091.315-.142.488l.06.069c3.338 3.98 2.421 8.194 2.001 7.406-1.812-3.397-5.162-2.348-6.855-1.664z" fill="#fefefe"/></svg>
